X:1
T:When Cilia was Learning on the Spinnet to play
T:John Isum (1680?-1726)
%%score [ 1 2 3 ]
L:1/8
M:3/4
K:D
V:1 treble nm="I"
V:2 treble nm="II"
V:3 treble nm="III"
V:1
|: c2 | d2 A2 A2 | F2 D2 F G | A3 B ^G2 | A4 c2 | d3 e f2 | d2 A2 A2 | B2 B2 z2 | z2 z2 c2 | %9
w: When|Ci- lia was|Lear- ning on the|Spin- net to|play, her|Tu- tor stood|by her to|show her,|to|
 d2 d2 z2 | z2 z2 B2 | c2 A2 d2 | d3 e c2 | d4 :| %14
w: show her,|to|show her, to|show her the|way;|
V:2
|: A2 | D2 F2 A2 | D4 D2 | C3 D E2 | A4 G2 | F3 E D2 | D2 E2 F2 | G2 G2 E2 | A2 A,2 z2 | z2 z2 D2 | %10
w: She|shook not the'|Note, which|an- gred him|much, and|made him, and|made him cry:|'Zounds 'tis a|long prick,|a|
 G2 G,2 E2 | A4 A2 | A4 A2 | d4 :| %14
w: long prick, a|long prick'd|Note you|touch!'|
V:3
|: E2 | F2 D2 F2 | A2 F2 D2 | E3 F (ED) | C4 E2 | A4 d2 | (F3 G) A2 | D4 z2 | z2 z2 A G | %9
w: Sur-|priz'd was the|La- dy to|hear him com- *|plain, and|said, and|said, _ and|said:|'I will|
 F2 D2 z2 | z2 z2 A G | E2 E2 A G | F3 G E2 | D4 :| %14
w: shake it,|I will|shake it when I|com to't a-|gain.'|

